pix_core/f/moodle.svg

<svg fill="none" preserveAspectRatio="xMinYMid meet" viewBox="0 0 24 24" xmlns="http://www.w3.org/2000/svg"><g fill="#fff"><path clip-rule="evenodd" d="m4.5 5c0-1.38071 1.11929-2.5 2.5-2.5h6.1716c.663 0 1.2989.26339 1.7677.73223l3.8285 3.82843c.4688.46884.7322 1.10473.7322 1.76777v10.17157c0 1.3807-1.1193 2.5-2.5 2.5h-10c-1.38071 0-2.5-1.1193-2.5-2.5 0-.2761.22386-.5.5-.5s.5.2239.5.5c0 .8284.67157 1.5 1.5 1.5h10c.8284 0 1.5-.6716 1.5-1.5v-10c0-.27614-.2239-.5-.5-.5h-3c-.8284 0-1.5-.67157-1.5-1.5v-3c0-.27614-.2239-.5-.5-.5h-6c-.82843 0-1.5.67157-1.5 1.5v5c0 .2761-.22386.5-.5.5s-.5-.2239-.5-.5zm10 2v-2.79289l3.2929 3.29289h-2.7929c-.2761 0-.5-.22386-.5-.5z" fill-rule="evenodd"/><path d="m3.21135 15.9952c.03676.1061.08271.2218.12866.3279h.07353v-.8681c-.01238-.1907-.03385-.3807-.06434-.5692-.03031-.1202-.05182-.2428-.06433-.3665v-1.0997c-.00176-.008-.00156-.0163.00058-.0242.00215-.0079.00617-.015.01169-.0208s.01234-.01.01984-.0123c.0075-.0022.01543-.0024.02303-.0006h1.23151c.06433 0 .06434.0097.06434.0675v.492c.00918.0866.00918.1739 0 .2605v3.1832c0 .0772 0 .0772.08271.0772h1.16717c.0827 0 .08272 0 .08272-.0868v-2.6624c0-.0389-.00104-.0812-.00207-.123-.00204-.0825-.00403-.1634.00207-.2146.00919-.0772.07352-.0772.07352-.0772h.15624c.26232-.0554.51198-.1635.73523-.3183h.0919c.05378.0532.10298.1113.14704.1736.09986.1739.14488.3765.12867.5788v2.6817c0 .0868 0 .0868.08272.0868h1.20393c.05514 0 .05514-.0579.05514-.0579v-2.2283c-.02771-.2758-.02771-.5538 0-.8296.01945-.1044.0632-.2022.12733-.2847.06413-.0824.14667-.147.24029-.1879.16518-.0496.34029-.0496.50547 0 .08812.023.16946.0685.2368.1324.06734.064.11859.1444.1492.2341.05168.1348.0767.2792.07352.4245v2.8553c0 .0675.01836.0675.06424.0675h1.2224c.0643.0096.0643-.0096.0643-.0675v-2.4791c.0152-.3039-.0064-.6086-.0643-.9068-.077-.3247-.2548-.6132-.5055-.8199-.3074-.2412-.6741-.3851-1.05685-.4148-.3047-.0473-.61435-.0473-.91904 0-.30323.0336-.58589.1768-.79956.4052h-.07352l-.42276-.3859-.30328-.2701.10109-.0772 1.19474-.9646v-.0675h-.06433l-.41356.0482-1.0569.1543c-.0442.0076-.08732.0147-.12976.0218-.28399.0474-.53737.0897-.88118.1904-.39518.1158-.78118.2412-1.15798.3859-.54342.2185-1.069.4831-1.57156.791l-.25733.164v.0579h.13786c.03461 0 .0506-.0252.05799-.0228.00634.0019.00634.0242.00634.0999v1.0997c.00501.0287.00501.0581 0 .0868-.08557.2669-.10765.5517-.06433.8296.03676.1736.0919.4245.12867.5306z"/></g></svg>

<svg viewBox="0 0 24 24" fill="none" xmlns="http://www.w3.org/2000/svg" preserveAspectRatio="xMinYMid meet">
<path fill-rule="evenodd" clip-rule="evenodd" d="M4.5 5C4.5 3.61929 5.61929 2.5 7 2.5H13.1716C13.8346 2.5 14.4705 2.76339 14.9393 3.23223L18.7678 7.06066C19.2366 7.5295 19.5 8.16539 19.5 8.82843V19C19.5 20.3807 18.3807 21.5 17 21.5H7C5.61929 21.5 4.5 20.3807 4.5 19C4.5 18.7239 4.72386 18.5 5 18.5C5.27614 18.5 5.5 18.7239 5.5 19C5.5 19.8284 6.17157 20.5 7 20.5H17C17.8284 20.5 18.5 19.8284 18.5 19V9C18.5 8.72386 18.2761 8.5 18 8.5H15C14.1716 8.5 13.5 7.82843 13.5 7V4C13.5 3.72386 13.2761 3.5 13 3.5H7C6.17157 3.5 5.5 4.17157 5.5 5V10C5.5 10.2761 5.27614 10.5 5 10.5C4.72386 10.5 4.5 10.2761 4.5 10V5ZM14.5 7V4.20711L17.7929 7.5H15C14.7239 7.5 14.5 7.27614 14.5 7Z" fill="#fff"/>
<path fill="#fff" d="M3.21135 15.9952C3.24811 16.1013 3.29406 16.217 3.34001 16.3231H3.41354V15.455C3.40116 15.2643 3.37969 15.0743 3.3492 14.8858C3.31889 14.7656 3.29738 14.643 3.28487 14.5193V13.4196C3.28311 13.4116 3.28331 13.4033 3.28545 13.3954C3.2876 13.3875 3.29162 13.3804 3.29714 13.3746C3.30266 13.3688 3.30948 13.3646 3.31698 13.3623C3.32448 13.3601 3.33241 13.3599 3.34001 13.3617H4.57152C4.63585 13.3617 4.63586 13.3714 4.63586 13.4292V13.9212C4.64504 14.0078 4.64504 14.0951 4.63586 14.1817V17.3649C4.63586 17.4421 4.63586 17.4421 4.71857 17.4421H5.88574C5.96844 17.4421 5.96846 17.4421 5.96846 17.3553V14.6929C5.96846 14.654 5.96742 14.6117 5.96639 14.5699C5.96435 14.4874 5.96236 14.4065 5.96846 14.3553C5.97765 14.2781 6.04198 14.2781 6.04198 14.2781H6.19822C6.46054 14.2227 6.7102 14.1146 6.93345 13.9598H7.02535C7.07913 14.013 7.12833 14.0711 7.17239 14.1334C7.27225 14.3073 7.31727 14.5099 7.30106 14.7122V17.3939C7.30106 17.4807 7.30106 17.4807 7.38378 17.4807H8.58771C8.64285 17.4807 8.64285 17.4228 8.64285 17.4228V15.1945C8.61514 14.9187 8.61514 14.6407 8.64285 14.3649C8.6623 14.2605 8.70605 14.1627 8.77018 14.0802C8.83431 13.9978 8.91685 13.9332 9.01047 13.8923C9.17565 13.8427 9.35076 13.8427 9.51594 13.8923C9.60406 13.9153 9.6854 13.9608 9.75274 14.0247C9.82008 14.0887 9.87133 14.1691 9.90194 14.2588C9.95362 14.3936 9.97864 14.538 9.97546 14.6833V17.5386C9.97546 17.6061 9.99382 17.6061 10.0397 17.6061H11.2621C11.3264 17.6157 11.3264 17.5965 11.3264 17.5386V15.0595C11.3416 14.7556 11.32 14.4509 11.2621 14.1527C11.1851 13.828 11.0073 13.5395 10.7566 13.3328C10.4492 13.0916 10.0825 12.9477 9.69975 12.918C9.39505 12.8707 9.0854 12.8707 8.78071 12.918C8.47748 12.9516 8.19482 13.0948 7.98115 13.3232H7.90763L7.48487 12.9373L7.18159 12.6672L7.28268 12.59L8.47742 11.6254V11.5579H8.41309L7.99953 11.6061L6.94263 11.7604C6.89843 11.768 6.85531 11.7751 6.81287 11.7822C6.52888 11.8296 6.2755 11.8719 5.93169 11.9726C5.53651 12.0884 5.15051 12.2138 4.77371 12.3585C4.23029 12.577 3.70471 12.8416 3.20215 13.1495L2.94482 13.3135V13.3714H3.08268C3.11729 13.3714 3.13328 13.3462 3.14067 13.3486C3.14701 13.3505 3.14701 13.3728 3.14701 13.4485V14.5482C3.15202 14.5769 3.15202 14.6063 3.14701 14.635C3.06144 14.9019 3.03936 15.1867 3.08268 15.4646C3.11944 15.6382 3.17458 15.8891 3.21135 15.9952Z" fill="#fff"/>
</svg>
